X:1
T:BWV 0800
T:Sinfonia 14
T:Johann Sebastian Bach
%%score { ( 1 2 ) | 3 }
L:1/8
Q:1/4=96
M:4/4
K:Bb
V:1 treble nm="Harp"
V:2 treble 
V:3 bass 
V:1
"^Andante" z8 | z f- f/e/d/c/ Bd A/B/c | F/f/d/B/ eg- g/e/c/A/ cf | d2 =e2 f B2 A- | %4
 AG- GF- FE- ED- | D/G/E/C/ Ac- c/F/B/d/ ce- | e d2 c d z z2 | z g- g/g/f/e/ df =B/c/d | %8
 G=B c4 =B2 | c8- | c3 f f/=e/d/e/ f/4e/4d/4e/4f/4e/4f/ | fa- a/a/g/f/ =eg ^c/d/e | %12
 A>=B =c/B/c/d/ B/A/B/^c/ d2- | d2 ^c2 df- f/_e/d/=c/ | =Bd G/A/B E2 e2- | ed/c/ BA d>e d/c/B/_A/ | %16
 G>_A BF Gg- g/f/e/d/ | cf B/c/d Ge- e/d/c/B/ | Ad G/A/B Ec- c/B/A/G/ | F2 z2 z f- f/e/d/c/ | %20
 Bd A/B/c- c/F/B/d/ ce- | e/A/B/d/ f2- f/B/c/e/ g2 | b/=a/g/f/ b/a/4g/4f/4e/4d/4c/4 B2- B/BA/ | %23
 !fermata!B8 |] %24
V:2
 B2- B/B/A/G/ FG D/E/F | B,/[I:staff +1]F,/B,/[I:staff -1]D/ CE- ED/=E/ F/4E/4F/4E/4F/4E/4D/4E/4 | %2
 F2 GB EG Ac- | c/F/B/d/ GB AD/_E/ F/G/E/F/ | %4
 D/F/B,/C/ D/E/C/D/ B,/D/[I:staff +1]G,/A,/ B,/C/_A,/B,/ | G,2 F,[I:staff -1] z z4 | %6
 B/4A/4B3/2- B/B/A/G/ ^FG D/E/=F | =B,2 C2- C_A D/E/F | =B,D G/_B/_A/G/ FA D/E/F- | %9
 F/F/F/4=E/4D/ EB- B/A/G/F/ G/A/B/G/ | =E/G/E/C/ FA G4 | A2 B2- B/A/G/F/ =EG | %12
 ^C/D/=E[I:staff +1] A,[I:staff -1]A- AG G/=F/G/A/ | B/G/A/B/ =E/B/A/G/ F2 z2 | z4 z c- c/_B/A/G/ | %15
 FA D/E/F B,F- F2- | F/D/ E2 D E z c>B | =A/G/F GA E/F/G CF- | %18
 F/E/D/C/ B,D[I:staff +1] A,/B,/C F,2- | F,[I:staff -1]B- B/B/A/G/ FA D/E/F | %20
[I:staff +1] B,/A,/B,/D/ C[I:staff -1]E- ED z/ B/A/G/ | F2 z/ d/B/_A/ G2 z/ e/c/B/ | %22
 f2 z2 z/4 A/4G/4F/4G/E/ DC | D8 |] %24
V:3
 B,DCB, A,G,F,E, | D,2 F,2 G,2 C2 | D2- D/D/B,/G,/ CE- E/C/A,/F,/ | %3
 B,2- B,/B,/A,/G,/ F,G, D,/E,/F, | B,,E, B,,/C,/D, G,,C, G,,/A,,/B,, | %5
 E,,E,- E,/C/A,/F,/ D,G, E,/C,/F,/G,/ | %6
 B,,/B,/G,/D,/ F,/4E,/4F,/4E,/4F,/4E,/4F,/4E,/4 D,/C/B,/A,/ G,/B,/_A,/G,/ | %7
 F,/_A,/G,/F,/ E,C, F,/E,/F,/G,/ A,/G,/F,/E,/ | F,/_A,/G,/F,/ E,/D,/C,/B,,/ _A,,/C,/E,/A,/ G,G,, | %9
 C,C- C/B,/=A,/G,/ F,A, =E,/F,/G, | A,,2- A,,/A,/F,/D,/ B,,/D,/B,,/G,,/ C,C,, | %11
 F,,/G,/F,/=E,/ D,E,/F,/ G,4- | G,/B,/A,/G,/ ^F,/D,/=E,/F,/ G,/F,/G,/A,/ _B,A, | %13
 G,/=E,/F,/G,/ A,A,, D,/A,/F,/D,/ DF- | F/E/D/C/ =B,G, C/G,/E,/C,/ _B,/D/C/B,/ | %15
 A,/G,/F,/E,/ F,>G, _A,/B,/A,/G,/ F,/E,/D,/C,/ | B,,C, G,,/_A,,/B,, E,,2 z E- | %17
 ED- D/D/C/B,/ C/D/C/B,/ A,/B,/A,/G,/ | F,B,, E,/D,/C,/B,,/ C,/B,,/A,,/G,,/ A,,/G,,/F,,/E,,/ | %19
 D,,/E,/D,/C,/ B,,/G,/F,/E,/ D,/E/D/C/ B,>A, | G,F,- F,/E,/D,/C,/ B,,D, A,,/B,,/C, | %21
 D,,D, B,,D, E,,E, C,E,- | E,F DB, G,E, F,F,, | !fermata!B,,8 |] %24

